X: 336
T:Fanncy. JaW.335
M:6/8
Q:100
S:James Winder Ms, Lancashire, 1835-41
R:Quadrille
O:England
A:Wyresdale,Lancashire
H:1/8
Z:vmp.Chris Partington, Aug 2004
K:C
ggg gc'c'|ggg gc'c'|gc'c' c'ba|gfe f2d|!
ggg gc'c'|ggg gd'd'|ge'd' c'ba|gfd ec2:|!
|:dBG ecG|fdB ge2|dBG ecG|fdB c2z|!
dBG ecG|fdB ge2|dBG ecG|fdB c2z:|]
